assets/images/svg/offer-fill.svg

<svg width="24" height="24" viewBox="0 0 24 24" fill="none" xmlns="http://www.w3.org/2000/svg">
<path d="M21.5309 10.8699L20.0109 9.34988C19.7509 9.08988 19.5409 8.57988 19.5409 8.21988V6.05988C19.5409 5.17988 18.8209 4.45988 17.9409 4.45988H15.7909C15.4309 4.45988 14.9209 4.24988 14.6609 3.98988L13.1409 2.46988C12.5209 1.84988 11.5009 1.84988 10.8809 2.46988L9.34086 3.98988C9.09086 4.24988 8.58086 4.45988 8.21086 4.45988H6.06086C5.18086 4.45988 4.46086 5.17988 4.46086 6.05988V8.20988C4.46086 8.56988 4.25086 9.07988 3.99086 9.33988L2.47086 10.8599C1.85086 11.4799 1.85086 12.4999 2.47086 13.1199L3.99086 14.6399C4.25086 14.8999 4.46086 15.4099 4.46086 15.7699V17.9199C4.46086 18.7999 5.18086 19.5199 6.06086 19.5199H8.21086C8.57086 19.5199 9.08086 19.7299 9.34086 19.9899L10.8609 21.5099C11.4809 22.1299 12.5009 22.1299 13.1209 21.5099L14.6409 19.9899C14.9009 19.7299 15.4109 19.5199 15.7709 19.5199H17.9209C18.8009 19.5199 19.5209 18.7999 19.5209 17.9199V15.7699C19.5209 15.4099 19.7309 14.8999 19.9909 14.6399L21.5109 13.1199C22.1609 12.5099 22.1609 11.4899 21.5309 10.8699ZM8.00086 8.99988C8.00086 8.44988 8.45086 7.99988 9.00086 7.99988C9.55086 7.99988 10.0009 8.44988 10.0009 8.99988C10.0009 9.54988 9.56086 9.99988 9.00086 9.99988C8.45086 9.99988 8.00086 9.54988 8.00086 8.99988ZM9.53086 15.5299C9.38086 15.6799 9.19086 15.7499 9.00086 15.7499C8.81086 15.7499 8.62086 15.6799 8.47086 15.5299C8.18086 15.2399 8.18086 14.7599 8.47086 14.4699L14.4709 8.46988C14.7609 8.17988 15.2409 8.17988 15.5309 8.46988C15.8209 8.75988 15.8209 9.23988 15.5309 9.52988L9.53086 15.5299ZM15.0009 15.9999C14.4409 15.9999 13.9909 15.5499 13.9909 14.9999C13.9909 14.4499 14.4409 13.9999 14.9909 13.9999C15.5409 13.9999 15.9909 14.4499 15.9909 14.9999C15.9909 15.5499 15.5509 15.9999 15.0009 15.9999Z" fill="#F58218"/>
</svg>

<svg xmlns="http://www.w3.org/2000/svg" width="24" height="24" fill="none" viewBox="0 0 24 24"><path fill="#f58218" d="m21.53 10.87-1.52-1.52c-.26-.26-.47-.77-.47-1.13V6.06c0-.88-.72-1.6-1.6-1.6h-2.15c-.36 0-.87-.21-1.13-.47l-1.52-1.52c-.62-.62-1.64-.62-2.26 0L9.34 3.99c-.25.26-.76.47-1.13.47H6.06c-.88 0-1.6.72-1.6 1.6v2.15c0 .36-.21.87-.47 1.13l-1.52 1.52c-.62.62-.62 1.64 0 2.26l1.52 1.52c.26.26.47.77.47 1.13v2.15c0 .88.72 1.6 1.6 1.6h2.15c.36 0 .87.21 1.13.47l1.52 1.52c.62.62 1.64.62 2.26 0l1.52-1.52c.26-.26.77-.47 1.13-.47h2.15c.88 0 1.6-.72 1.6-1.6v-2.15c0-.36.21-.87.47-1.13l1.52-1.52c.65-.61.65-1.63.02-2.25M8 9c0-.55.45-1 1-1s1 .45 1 1-.44 1-1 1c-.55 0-1-.45-1-1m1.53 6.53c-.15.15-.34.22-.53.22s-.38-.07-.53-.22a.754.754 0 0 1 0-1.06l6-6c.29-.29.77-.29 1.06 0s.29.77 0 1.06zM15 16c-.56 0-1.01-.45-1.01-1s.45-1 1-1 1 .45 1 1-.44 1-.99 1"/></svg>
